icons/24x24_trash_filled.svg

<svg xmlns="http://www.w3.org/2000/svg" width="24" height="24" viewBox="0 0 24 24">
  <path fill-rule="evenodd" d="M6,10 L18,10 L18,19 C18,20.1045695 17.1045695,21 16,21 L8,21 C6.8954305,21 6,20.1045695 6,19 L6,10 Z M9,5 C9,3.8954305 9.8954305,3 11,3 L13,3 C14.1045695,3 15,3.8954305 15,5 L17,5 C18.1045695,5 19,5.8954305 19,7 L19,9 L5,9 L5,7 C5,5.8954305 5.8954305,5 7,5 L9,5 Z M10,12 C9.44771525,12 9,12.4477153 9,13 L9,17 C9,17.5522847 9.44771525,18 10,18 C10.5522847,18 11,17.5522847 11,17 L11,13 C11,12.4477153 10.5522847,12 10,12 Z M14,12 C13.4477153,12 13,12.4477153 13,13 L13,17 C13,17.5522847 13.4477153,18 14,18 C14.5522847,18 15,17.5522847 15,17 L15,13 C15,12.4477153 14.5522847,12 14,12 Z"/>
</svg>

<svg width="24" height="24" fill="none" xmlns="http://www.w3.org/2000/svg"><path fill-rule="evenodd" clip-rule="evenodd" d="M6 10h12v9a2 2 0 0 1-2 2H8a2 2 0 0 1-2-2v-9Zm3-5a2 2 0 0 1 2-2h2a2 2 0 0 1 2 2h2a2 2 0 0 1 2 2v2H5V7a2 2 0 0 1 2-2h2Zm1 7a1 1 0 0 0-1 1v4a1 1 0 1 0 2 0v-4a1 1 0 0 0-1-1Zm4 0a1 1 0 0 0-1 1v4a1 1 0 1 0 2 0v-4a1 1 0 0 0-1-1Z" fill="#000"/></svg>
